img/vector-3.svg

<svg fill="none" height="45" viewBox="0 0 129 45" width="129" xmlns="http://www.w3.org/2000/svg"><path d="m48.9499 41.579-45.1926-23.6503c-2.781762-1.4558-3.8008564-4.9361-2.24378-7.6628 1.29972-2.27606 4.01606-3.32328 6.50563-2.50814l51.53745 16.87454c6.2023 2.0307 12.9779 1.2301 18.532-2.1899l34.2534-21.09197c3.687-2.270071 8.526-.89972 10.489 2.97021l5.288 10.42496-59.6295 27.348c-6.2392 2.8615-13.4512 2.6715-19.5396-.5146z" fill="#403add"/></svg>

<svg width="129" height="45" viewBox="0 0 129 45" fill="none" xmlns="http://www.w3.org/2000/svg">
<path d="M48.9499 41.579L3.7573 17.9287C0.975538 16.4729 -0.0435564 12.9926 1.51352 10.2659C2.81324 7.98984 5.52958 6.94262 8.01915 7.75776L59.5566 24.6323C65.7589 26.663 72.5345 25.8624 78.0886 22.4424L112.342 1.35043C116.029 -0.919641 120.868 0.45071 122.831 4.32064L128.119 14.7456L68.4895 42.0936C62.2503 44.9551 55.0383 44.7651 48.9499 41.579Z" fill="#403ADD"/>
</svg>
